dist/files/industries_challenges_logo.svg

<svg width="142" height="142" viewBox="0 0 142 142" fill="none" xmlns="http://www.w3.org/2000/svg">
<path d="M75.1875 38.9764V36.6982C75.1875 36.0711 74.674 35.5586 74.0469 35.5586C73.4187 35.5586 72.9062 36.0711 72.9062 36.6982V38.9764C72.9062 39.6025 73.4187 40.1149 74.0469 40.1149C74.674 40.1149 75.1875 39.6025 75.1875 38.9764Z" fill="white"/>
<path d="M90.0156 56.0623H92.2969C92.924 56.0623 93.4375 55.5498 93.4375 54.9237C93.4375 54.2976 92.924 53.7852 92.2969 53.7852H90.0156C89.3885 53.7852 88.875 54.2976 88.875 54.9237C88.875 55.5498 89.3885 56.0623 90.0156 56.0623Z" fill="white"/>
<path d="M84.539 66.9984L86.1363 68.5926C86.5919 69.0483 87.3337 69.0483 87.7326 68.5926C88.1892 68.137 88.1892 67.4541 87.7326 66.9984L86.1363 65.4042C85.6796 64.9486 84.9957 64.9486 84.539 65.4042C84.0834 65.8588 84.0834 66.5428 84.539 66.9984Z" fill="white"/>
<path d="M61.9563 44.4403C62.413 44.8959 63.1538 44.8959 63.5536 44.4403C64.0093 43.9846 64.0093 43.3017 63.5536 42.8461L61.9563 41.2519C61.5007 40.7962 60.8157 40.7962 60.3601 41.2519C59.9034 41.7075 59.9034 42.3904 60.3601 42.8461L61.9563 44.4403Z" fill="white"/>
<g filter="url(#filter0_d_6017_2854)">
<circle cx="67" cy="68" r="59" fill="#152968"/>
</g>
<mask id="mask0_6017_2854" style="mask-type:luminance" maskUnits="userSpaceOnUse" x="76" y="94" width="14" height="8">
<path d="M76.998 94.2695H89.9583V101.618H76.998V94.2695Z" fill="white"/>
</mask>
<g mask="url(#mask0_6017_2854)">
<path d="M87.6764 94.2695C87.6764 94.44 87.7332 94.6105 87.7332 94.782C87.7332 97.2875 85.6803 99.3383 83.1707 99.3383C81.3461 99.3383 79.7488 98.2555 79.008 96.6613L77.2402 98.2555C78.4377 100.25 80.6043 101.615 83.1139 101.615C86.8777 101.615 89.9577 98.5407 89.9577 94.782C89.9577 94.6105 89.9577 94.44 89.9577 94.2695H87.6764Z" fill="white"/>
</g>
<path d="M72.9057 70.2446C72.9057 68.5358 71.5367 67.1689 69.8826 67.1689C69.2555 67.1689 67.4877 66.8847 66.2892 66.6564L63.2103 63.4102C62.5253 63.8658 61.7845 64.2078 60.9859 64.3782L64.9213 68.4789C65.0917 68.6504 65.3201 68.7641 65.5484 68.8209C65.8904 68.8777 68.7988 69.3902 69.8826 69.3902C70.2814 69.3902 70.6244 69.7322 70.6244 70.1878C70.6244 70.5298 70.1678 70.9276 69.5406 70.9854L63.8375 70.4719L59.5033 67.0552C58.9898 66.6564 58.3058 66.7701 57.906 67.2257C57.5072 67.7392 57.6208 68.4221 58.0775 68.8209L62.64 72.4092C62.8105 72.5228 63.0388 72.6365 63.2671 72.6365C63.2671 72.6365 69.4259 73.2057 69.4838 73.2057C71.3652 73.2626 72.9057 71.8957 72.9057 70.2446Z" fill="white"/>
<path d="M55.6808 55.209L55.3388 56.86C55.0536 58.1133 55.282 59.3665 55.9659 60.3915C56.5941 61.3595 57.5632 61.9857 58.647 62.214C61.0419 62.6696 63.38 60.9607 63.8935 58.6257L64.2355 56.9737C64.5207 55.7215 64.2923 54.4682 63.6084 53.4433C62.9812 52.4752 62.0121 51.8481 60.9283 51.6208C58.5902 51.1083 56.1943 52.7594 55.6808 55.209ZM57.5632 57.3157L57.9052 55.6647C58.1335 54.5251 59.1027 53.7853 60.1296 53.7853C61.4986 53.7853 62.2973 55.2658 62.0121 56.5181L61.6691 58.1701C61.3839 59.4234 60.2433 60.2768 59.1027 60.0495C57.9052 59.7643 57.3349 58.4553 57.5632 57.3157Z" fill="white"/>
<path d="M31.8438 85.1055H29.5625C28.9354 85.1055 28.4219 85.6179 28.4219 86.244C28.4219 86.8712 28.9354 87.3836 29.5625 87.3836H31.8438C32.4709 87.3836 32.9844 86.8712 32.9844 86.244C32.9844 85.6179 32.4709 85.1055 31.8438 85.1055Z" fill="white"/>
<path d="M31.8438 94.2188H29.5625C28.9354 94.2188 28.4219 94.7312 28.4219 95.3573C28.4219 95.9834 28.9354 96.4959 29.5625 96.4959H31.8438C32.4709 96.4959 32.9844 95.9834 32.9844 95.3573C32.9844 94.7312 32.4709 94.2188 31.8438 94.2188Z" fill="white"/>
<mask id="mask1_6017_2854" style="mask-type:luminance" maskUnits="userSpaceOnUse" x="25" y="89" width="9" height="4">
<path d="M25 89.5195H33.0919V92.1645H25V89.5195Z" fill="white"/>
</mask>
<g mask="url(#mask1_6017_2854)">
<path d="M31.8438 89.668H26.1406C25.5135 89.668 25 90.1804 25 90.8065C25 91.4337 25.5135 91.9461 26.1406 91.9461H31.8438C32.4709 91.9461 32.9844 91.4337 32.9844 90.8065C32.9844 90.1804 32.4709 89.668 31.8438 89.668Z" fill="white"/>
</g>
<path d="M48.8965 83.6798H55.8539L62.6977 92.7914C63.0965 93.3617 63.8383 93.7605 64.5223 93.7605H70.3401C70.6821 93.7605 70.9673 93.6459 71.1956 93.3617L76.6704 87.1533C76.9556 86.8692 77.0124 86.4704 76.8977 86.0716L73.762 75.2511C73.7042 75.0228 73.5905 74.8523 73.419 74.6808L73.0202 74.3398C72.3931 74.8523 71.5944 75.1943 70.7389 75.3648L71.6512 76.1624L74.5028 86.0716L69.7698 91.4255H64.4655L57.5649 82.3129C57.1661 81.7436 56.4242 81.3448 55.7403 81.3448H50.8347C50.4927 82.3129 49.752 83.1105 48.8965 83.6798Z" fill="white"/>
<path d="M82.6006 82.4311L79.1218 74.9137L79.9205 74.4013C80.8328 73.832 81.4599 72.6924 81.4599 71.6675V69.7313C81.4599 68.478 80.434 67.4531 79.1218 67.4531H74.3889C74.7877 68.1361 75.0728 68.9337 75.1296 69.7313H79.1787V71.6675C79.1787 71.8948 78.9514 72.3504 78.723 72.4651L77.0121 73.49C76.4986 73.7752 76.3281 74.4013 76.5554 74.9137L80.8328 83.9685C81.0043 84.3673 81.4031 84.5957 81.803 84.6525C82.0303 84.6525 87.221 84.9945 89.1592 89.7213H80.3193C80.0341 89.7213 79.749 89.8349 79.5785 90.0054L73.5902 95.4161C73.305 95.6445 72.6779 95.9286 72.3359 95.9286H59.789C59.3323 95.9286 59.0472 95.5866 58.762 95.3025L54.3142 90.6894C54.0858 90.461 53.8007 90.3474 53.5155 90.3474H38.117C38.4021 88.6395 39.5428 85.5637 43.4782 84.0832L40.3983 83.1719C36.748 85.6206 36.0072 89.2656 35.8357 90.5757C35.7221 91.5438 36.4629 92.6824 37.4899 92.6824H53.0588L57.1079 96.8967C57.6782 97.6943 58.8188 98.2636 59.789 98.2636H72.3359C73.2482 98.2636 74.4457 97.808 75.1296 97.1819L80.776 92.0562H90.0725C90.585 92.0562 91.0985 91.8279 91.3836 91.4301C91.6688 91.0313 91.7824 90.5189 91.612 90.0632C90.1294 84.7093 85.3953 82.8299 82.6006 82.4311Z" fill="white"/>
<mask id="mask2_6017_2854" style="mask-type:luminance" maskUnits="userSpaceOnUse" x="50" y="31" width="48" height="47">
<path d="M50.0195 31H98.0004V77.3443H50.0195V31Z" fill="white"/>
</mask>
<g mask="url(#mask2_6017_2854)">
<path d="M51.7479 57.996C52.0899 58.1096 52.375 58.2233 52.6602 58.3369C52.4887 57.1984 52.375 56.0588 52.375 54.9202C52.375 42.9601 62.0704 33.2782 74.047 33.2782C86.0226 33.2782 95.718 42.9601 95.718 54.9202C95.718 63.7477 90.4146 71.3219 82.829 74.6818C82.6007 75.0238 82.3155 75.3658 81.9736 75.7078L82.6586 77.1883C91.6121 73.7716 97.9992 65.0578 97.9992 54.9202C97.9992 41.7079 87.2779 31 74.047 31C60.8151 31 50.0938 41.7079 50.0938 54.9202C50.0938 55.7746 50.1506 56.6859 50.2642 57.5403L51.7479 57.996Z" fill="white"/>
</g>
<path d="M49.1237 79.7537L50.8336 73.4895L52.6024 73.9452C53.2296 74.1156 53.8567 73.7168 53.9703 73.1475C54.1418 72.5214 53.7999 71.8943 53.1727 71.7806L51.4039 71.325L53.3432 64.3769C53.8567 62.5543 52.8297 60.675 51.0619 60.1625L41.4813 57.3151C39.7135 56.8026 37.831 57.9412 37.3175 59.6501L33.0402 75.0837C32.5277 76.9063 33.5537 78.7856 35.3214 79.2981L44.9031 82.1465C46.1006 82.4307 48.3819 82.2602 49.1237 79.7537ZM35.3214 75.7109C35.3214 75.7109 39.542 60.334 39.5988 60.2762C39.7703 59.7069 40.3406 59.3659 40.9109 59.4796L50.4916 62.327C51.0619 62.4975 51.4039 63.1247 51.2334 63.7508C51.2334 63.7508 47.0129 79.1276 46.9561 79.1844C46.7846 79.7537 46.2143 80.1525 45.6439 79.982L36.0633 77.1346C35.4929 76.9631 35.151 76.337 35.3214 75.7109Z" fill="white"/>
<path d="M81.4031 63.3485C81.8598 63.7473 82.6006 63.7473 83.0004 63.2917C83.4561 62.836 83.3992 62.0952 82.9436 61.6975L77.1258 56.3435C77.2973 55.9447 77.4109 55.4891 77.4109 54.9766C77.4109 54.4074 77.2405 53.8381 77.0121 53.3256L81.6315 48.1421C82.0303 47.6865 82.0303 46.9468 81.5178 46.548C81.0612 46.1491 80.3193 46.1491 79.9205 46.6616L75.3012 51.844C74.9592 51.6167 74.5025 51.5031 74.0469 51.5031C72.1644 51.5031 70.625 53.0405 70.625 54.9198C70.625 56.7992 72.1644 58.3365 74.0469 58.3365C74.6172 58.3365 75.1297 58.1661 75.6432 57.9377C75.6432 57.9377 81.4031 63.2917 81.4031 63.3485ZM74.0469 56.0584C73.4187 56.0584 72.9063 55.5459 72.9063 54.9198C72.9063 54.2937 73.4187 53.7812 74.0469 53.7812C74.674 53.7812 75.1875 54.2937 75.1875 54.9198C75.1875 55.5459 74.674 56.0584 74.0469 56.0584Z" fill="white"/>
<mask id="mask3_6017_2854" style="mask-type:luminance" maskUnits="userSpaceOnUse" x="38" y="94" width="15" height="8">
<path d="M38.6465 94.8008H52.6647V101.62H38.6465V94.8008Z" fill="white"/>
</mask>
<g mask="url(#mask3_6017_2854)">
<path d="M50.2647 94.9023C50.2078 97.351 48.1549 99.345 45.7032 99.345C43.2504 99.345 41.1975 97.351 41.1406 94.9023H38.8594C38.9162 98.6042 41.9383 101.622 45.7032 101.622C49.2955 101.622 52.2039 98.8894 52.4891 95.358L52.0335 94.9023H50.2647Z" fill="white"/>
</g>
<path d="M47.4141 94.8984H43.9922C44.049 95.8097 44.7898 96.4926 45.7031 96.4926C46.6154 96.4926 47.3562 95.8097 47.4141 94.8984Z" fill="white"/>
<path d="M61.2711 74.2859L60.2442 73.4883L59.275 77.589C59.1614 78.1014 59.3887 78.6139 59.8454 78.8412L63.6661 80.8921C63.7807 81.0057 66.1757 89.2071 66.1757 89.2071H68.5706C68.5706 89.2071 66.1757 81.1194 66.1188 81.0057C65.9473 80.2659 65.6053 79.3547 64.8635 78.9559L61.67 77.247L62.2403 74.7984C61.8983 74.6837 61.5563 74.5132 61.2711 74.2859Z" fill="white"/>
<path d="M86.1363 44.4403L87.7326 42.8461C88.1892 42.3904 88.1892 41.7075 87.7326 41.2519C87.2769 40.7962 86.5919 40.7962 86.1363 41.2519L84.539 42.8461C84.0834 43.3017 84.0834 43.9846 84.539 44.4403C84.9957 44.8959 85.6796 44.8959 86.1363 44.4403Z" fill="white"/>
<path d="M84.3106 94.8984H82.0293C82.0872 95.4677 82.5428 95.9234 83.1699 95.9234C83.7981 95.9234 84.2537 95.4677 84.3106 94.8984Z" fill="white"/>
<defs>
<filter id="filter0_d_6017_2854" x="0.6" y="0.6" width="140.8" height="140.8" filterUnits="userSpaceOnUse" color-interpolation-filters="sRGB">
<feFlood flood-opacity="0" result="BackgroundImageFix"/>
<feColorMatrix in="SourceAlpha" type="matrix" values="0 0 0 0 0 0 0 0 0 0 0 0 0 0 0 0 0 0 127 0" result="hardAlpha"/>
<feOffset dx="4" dy="3"/>
<feGaussianBlur stdDeviation="5.7"/>
<feComposite in2="hardAlpha" operator="out"/>
<feColorMatrix type="matrix" values="0 0 0 0 0.128333 0 0 0 0 0.119778 0 0 0 0 0.119778 0 0 0 0.25 0"/>
<feBlend mode="normal" in2="BackgroundImageFix" result="effect1_dropShadow_6017_2854"/>
<feBlend mode="normal" in="SourceGraphic" in2="effect1_dropShadow_6017_2854" result="shape"/>
</filter>
</defs>
</svg>

<svg width="142" height="142" fill="none" xmlns="http://www.w3.org/2000/svg"><path d="M75.188 38.976v-2.278c0-.627-.514-1.14-1.141-1.14-.628 0-1.14.513-1.14 1.14v2.278c0 .627.512 1.139 1.14 1.139.627 0 1.14-.513 1.14-1.139ZM90.016 56.062h2.28c.628 0 1.141-.512 1.141-1.138 0-.626-.513-1.139-1.14-1.139h-2.281c-.628 0-1.141.513-1.141 1.139s.513 1.138 1.14 1.138ZM84.539 66.998l1.597 1.595c.456.455 1.198.455 1.597 0a1.099 1.099 0 0 0 0-1.595l-1.597-1.594a1.104 1.104 0 0 0-1.597 0 1.1 1.1 0 0 0 0 1.594ZM61.956 44.44c.457.456 1.198.456 1.598 0a1.1 1.1 0 0 0 0-1.594l-1.598-1.594a1.103 1.103 0 0 0-1.596 0 1.099 1.099 0 0 0 0 1.594l1.596 1.594Z" fill="#fff"/><g filter="url(#a)"><circle cx="67" cy="68" r="59" fill="#152968"/></g><mask id="b" style="mask-type:luminance" maskUnits="userSpaceOnUse" x="76" y="94" width="14" height="8"><path d="M76.998 94.27h12.96v7.348h-12.96v-7.349Z" fill="#fff"/></mask><g mask="url(#b)"><path d="M87.676 94.27c0 .17.057.34.057.512 0 2.505-2.053 4.556-4.562 4.556-1.825 0-3.422-1.082-4.163-2.677l-1.768 1.594c1.198 1.995 3.364 3.36 5.874 3.36 3.764 0 6.844-3.074 6.844-6.833v-.513h-2.282Z" fill="#fff"/></g><path d="M72.906 70.245c0-1.71-1.37-3.076-3.023-3.076-.627 0-2.395-.284-3.594-.513L63.21 63.41c-.685.456-1.425.798-2.224.968l3.935 4.1c.17.172.4.286.627.343.342.057 3.25.57 4.335.57.398 0 .741.341.741.797 0 .342-.456.74-1.083.797l-5.703-.513-4.335-3.417c-.513-.399-1.197-.285-1.597.17-.399.514-.285 1.197.172 1.596l4.562 3.588c.17.114.399.227.627.227 0 0 6.159.57 6.217.57 1.881.057 3.422-1.31 3.422-2.961ZM55.68 55.209l-.341 1.651c-.285 1.253-.057 2.507.627 3.532a4.199 4.199 0 0 0 2.681 1.822c2.395.456 4.733-1.253 5.247-3.588l.342-1.652c.285-1.252.056-2.506-.628-3.53a4.19 4.19 0 0 0-2.68-1.823c-2.338-.513-4.734 1.138-5.247 3.588Zm1.883 2.107.342-1.651c.228-1.14 1.198-1.88 2.225-1.88 1.369 0 2.167 1.48 1.882 2.733l-.343 1.652c-.285 1.253-1.426 2.107-2.566 1.88-1.198-.286-1.768-1.595-1.54-2.734ZM31.844 85.106h-2.282c-.627 0-1.14.512-1.14 1.138 0 .627.513 1.14 1.14 1.14h2.282c.627 0 1.14-.513 1.14-1.14 0-.626-.513-1.138-1.14-1.138ZM31.844 94.219h-2.282c-.627 0-1.14.512-1.14 1.138 0 .626.513 1.139 1.14 1.139h2.282c.627 0 1.14-.513 1.14-1.139s-.513-1.138-1.14-1.138Z" fill="#fff"/><mask id="c" style="mask-type:luminance" maskUnits="userSpaceOnUse" x="25" y="89" width="9" height="4"><path d="M25 89.52h8.092v2.645H25v-2.646Z" fill="#fff"/></mask><g mask="url(#c)"><path d="M31.844 89.668H26.14c-.627 0-1.141.512-1.141 1.138 0 .628.514 1.14 1.14 1.14h5.704c.627 0 1.14-.512 1.14-1.14 0-.626-.513-1.138-1.14-1.138Z" fill="#fff"/></g><path d="M48.897 83.68h6.957l6.844 9.111c.398.57 1.14.97 1.824.97h5.818c.342 0 .627-.115.856-.4l5.474-6.208c.286-.284.342-.683.228-1.081l-3.136-10.82a1.189 1.189 0 0 0-.343-.571l-.399-.341c-.627.512-1.426.854-2.281 1.025l.912.797 2.852 9.91-4.733 5.353h-5.304l-6.901-9.112c-.399-.57-1.14-.968-1.825-.968h-4.905c-.342.968-1.083 1.766-1.938 2.335Z" fill="#fff"/><path d="m82.6 82.431-3.478-7.517.799-.513c.912-.569 1.539-1.709 1.539-2.733V69.73c0-1.253-1.026-2.278-2.338-2.278h-4.733c.399.683.684 1.48.74 2.278h4.05v1.937c0 .227-.228.682-.456.797l-1.71 1.025c-.514.285-.685.911-.458 1.424l4.278 9.055c.171.398.57.627.97.684.227 0 5.418.341 7.356 5.068h-8.84c-.285 0-.57.114-.74.284l-5.989 5.411c-.285.228-.912.513-1.254.513H59.789c-.457 0-.742-.342-1.027-.627l-4.448-4.613a1.126 1.126 0 0 0-.798-.342H38.117c.285-1.707 1.426-4.783 5.361-6.264l-3.08-.911c-3.65 2.449-4.39 6.094-4.562 7.404-.114.968.627 2.106 1.654 2.106h15.569l4.049 4.215c.57.797 1.71 1.367 2.681 1.367h12.547c.912 0 2.11-.456 2.794-1.082l5.646-5.126h9.297c.512 0 1.026-.228 1.31-.626.286-.399.4-.911.229-1.367-1.483-5.354-6.217-7.233-9.011-7.632Z" fill="#fff"/><mask id="d" style="mask-type:luminance" maskUnits="userSpaceOnUse" x="50" y="31" width="48" height="47"><path d="M50.02 31H98v46.344H50.02V31Z" fill="#fff"/></mask><g mask="url(#d)"><path d="M51.748 57.996c.342.114.627.227.912.34-.171-1.138-.285-2.277-.285-3.416 0-11.96 9.695-21.642 21.672-21.642 11.976 0 21.671 9.682 21.671 21.642 0 8.828-5.303 16.402-12.889 19.762a6.822 6.822 0 0 1-.855 1.026l.685 1.48c8.953-3.416 15.34-12.13 15.34-22.268C98 41.708 87.278 31 74.047 31c-13.232 0-23.953 10.708-23.953 23.92 0 .855.057 1.766.17 2.62l1.484.456Z" fill="#fff"/></g><path d="m49.124 79.754 1.71-6.264 1.768.455c.628.17 1.255-.228 1.368-.797.172-.627-.17-1.254-.797-1.367l-1.77-.456 1.94-6.948c.514-1.823-.513-3.702-2.281-4.214l-9.58-2.848c-1.768-.512-3.651.626-4.164 2.335L33.04 75.084c-.512 1.822.514 3.702 2.281 4.214l9.582 2.849c1.198.284 3.479.113 4.22-2.393ZM35.32 75.71s4.221-15.377 4.278-15.435c.171-.57.742-.91 1.312-.796l9.58 2.847c.57.17.913.798.742 1.424 0 0-4.22 15.377-4.277 15.433-.171.57-.742.969-1.312.798l-9.58-2.847c-.571-.172-.913-.798-.743-1.424ZM81.403 63.349c.457.398 1.198.398 1.597-.057a1.1 1.1 0 0 0-.056-1.595l-5.818-5.354c.171-.398.285-.854.285-1.366 0-.57-.17-1.139-.399-1.651l4.62-5.184c.398-.456.398-1.195-.114-1.594-.457-.399-1.199-.399-1.597.114l-4.62 5.182c-.342-.227-.799-.34-1.254-.34a3.429 3.429 0 0 0-3.422 3.416c0 1.88 1.54 3.416 3.422 3.416.57 0 1.083-.17 1.596-.398 0 0 5.76 5.354 5.76 5.41Zm-7.356-7.29c-.628 0-1.14-.513-1.14-1.14 0-.625.512-1.138 1.14-1.138.627 0 1.14.513 1.14 1.139s-.513 1.138-1.14 1.138Z" fill="#fff"/><mask id="e" style="mask-type:luminance" maskUnits="userSpaceOnUse" x="38" y="94" width="15" height="8"><path d="M38.647 94.8h14.018v6.82H38.647V94.8Z" fill="#fff"/></mask><g mask="url(#e)"><path d="M50.265 94.902c-.057 2.449-2.11 4.443-4.562 4.443-2.453 0-4.506-1.994-4.562-4.443h-2.282a6.835 6.835 0 0 0 6.844 6.72c3.592 0 6.5-2.733 6.786-6.264l-.456-.456h-1.768Z" fill="#fff"/></g><path d="M47.414 94.898h-3.422a1.692 1.692 0 0 0 1.711 1.595c.912 0 1.653-.683 1.711-1.595ZM61.271 74.286l-1.027-.798-.969 4.101c-.114.512.114 1.025.57 1.252l3.821 2.051c.115.114 2.51 8.315 2.51 8.315h2.395s-2.395-8.088-2.452-8.201c-.172-.74-.514-1.651-1.255-2.05l-3.194-1.709.57-2.449a3.201 3.201 0 0 1-.969-.512ZM86.136 44.44l1.597-1.594a1.099 1.099 0 0 0 0-1.594 1.103 1.103 0 0 0-1.597 0l-1.597 1.594a1.1 1.1 0 0 0 0 1.594c.457.456 1.14.456 1.597 0ZM84.31 94.898h-2.28c.057.57.513 1.025 1.14 1.025.628 0 1.084-.455 1.14-1.025Z" fill="#fff"/><defs><filter id="a" x=".6" y=".6" width="140.8" height="140.8" filterUnits="userSpaceOnUse" color-interpolation-filters="sRGB"><feFlood flood-opacity="0" result="BackgroundImageFix"/><feColorMatrix in="SourceAlpha" values="0 0 0 0 0 0 0 0 0 0 0 0 0 0 0 0 0 0 127 0" result="hardAlpha"/><feOffset dx="4" dy="3"/><feGaussianBlur stdDeviation="5.7"/><feComposite in2="hardAlpha" operator="out"/><feColorMatrix values="0 0 0 0 0.128333 0 0 0 0 0.119778 0 0 0 0 0.119778 0 0 0 0.25 0"/><feBlend in2="BackgroundImageFix" result="effect1_dropShadow_6017_2854"/><feBlend in="SourceGraphic" in2="effect1_dropShadow_6017_2854" result="shape"/></filter></defs></svg>
